T: Follow Me Down To Carlow
M: 4/4
L: 1/8
K: Edor
|: B2 E>F G>A B2 | (3ABA D>E F>GA<d | |:(3efe d>f e<dB>c | d>ed>B A/G/F/E/ D2 | 2 E>GF>A G>B e2 | d<BA>F E4 ||
